src/sources/forus-platform/resources/_platform-common/assets/img/features/icons/email-connection/icon-3.svg

<svg width="59" height="59" viewBox="0 0 59 59" fill="none" xmlns="http://www.w3.org/2000/svg">
    <rect x="0.5" y="0.875" width="58" height="58" rx="8" fill="#F7F9FC"/>
    <path d="M29.5 35.7967L44.7245 45.3837C45.1969 44.9931 45.4929 44.4073 45.4929 43.746V25.7185L29.5 35.7967Z" fill="#305DFC"/>
    <path d="M13.501 25.7185V43.746C13.501 44.4074 13.8033 44.9931 14.2757 45.3837C14.6474 45.686 15.1198 45.875 15.6363 45.875H43.3641C43.8806 45.875 44.353 45.6923 44.7246 45.3837L13.501 25.7185Z" fill="#5279FF"/>
    <path d="M30.2876 14.1348C29.8151 13.7884 29.1789 13.7884 28.7065 14.1348L13.501 25.7185L16.6378 27.6964L18.1811 28.6727L29.5002 35.7968L40.8193 28.6664L42.3625 27.6964L45.4994 25.7185L30.2876 14.1348Z" fill="#092DAA"/>
    <path d="M36.8698 16.0056H17.9731C17.2361 16.0056 16.6377 16.5977 16.6377 17.3347V27.6964L18.1809 28.6727L29.5001 35.7968L40.8192 28.6664L42.3624 27.6964V21.4731L36.8698 16.0056Z" fill="#E6ECFF"/>
    <path d="M36.8701 16.0056V20.1503C36.8701 20.881 37.4685 21.4794 38.2055 21.4794H42.3628L36.8701 16.0056Z" fill="#9CB8F8"/>
    <path d="M33.072 20.1944H22.1309V21.4731H33.072V20.1944Z" fill="#9CB8F8"/>
    <path d="M36.8703 24.0241H22.1309V25.3028H36.8703V24.0241Z" fill="#9CB8F8"/>
    <path d="M36.8703 27.8539H22.1309V29.1325H36.8703V27.8539Z" fill="#9CB8F8"/>
</svg>

<svg width="59" height="59" fill="none" xmlns="http://www.w3.org/2000/svg"><rect x=".5" y=".875" width="58" height="58" rx="8" fill="#F7F9FC"/><path d="m29.5 35.797 15.224 9.587c.473-.39.769-.977.769-1.638V25.718L29.5 35.797Z" fill="#305DFC"/><path d="M13.501 25.718v18.028c0 .661.302 1.247.775 1.638.371.302.844.491 1.36.491h27.728c.517 0 .989-.183 1.36-.491L13.502 25.718Z" fill="#5279FF"/><path d="M30.288 14.135a1.333 1.333 0 0 0-1.582 0L13.501 25.718l3.137 1.978 1.543.977 11.32 7.124 11.318-7.13 1.543-.97 3.137-1.979-15.211-11.583Z" fill="#092DAA"/><path d="M36.87 16.006H17.973a1.33 1.33 0 0 0-1.335 1.329v10.361l1.543.977 11.32 7.124 11.318-7.13 1.543-.97v-6.224l-5.492-5.467Z" fill="#E6ECFF"/><path d="M36.87 16.006v4.144c0 .731.599 1.33 1.336 1.33h4.157l-5.493-5.474ZM33.072 20.194H22.131v1.28h10.941v-1.28ZM36.87 24.024H22.13v1.279h14.74v-1.279ZM36.87 27.854H22.13v1.279h14.74v-1.28Z" fill="#9CB8F8"/></svg>
